src/icon/entity/cashback-bonus/icon_cashback-bonus_m_color.svg

<?xml version="1.0" encoding="UTF-8"?>
<svg width="24px" height="24px" viewBox="0 0 24 24" version="1.1" xmlns="http://www.w3.org/2000/svg" xmlns:xlink="http://www.w3.org/1999/xlink">
    <!-- Generator: Sketch 49.1 (51147) - http://www.bohemiancoding.com/sketch -->
    <title>icon_cashback-bonus_m_color</title>
    <desc>Created with Sketch.</desc>
    <defs></defs>
    <g id="icon_cashback-bonus_m_color" stroke="none" stroke-width="1" fill="none" fill-rule="evenodd">
        <rect id="Rectangle" x="0" y="0" width="24" height="24"></rect>
        <g id="Group" transform="translate(3.000000, 3.000000)" fill-rule="nonzero">
            <rect id="Rectangle-path-Copy" fill="#FFD700" x="0" y="0" width="18" height="18" rx="9"></rect>
            <path d="M9.98500001,4.98319685 C10.055,5.19057747 11.674,10.0698713 11.722,10.2161013 C11.736,10.2565138 11.7269999,10.3240454 11.6695,10.347974 C11.6125,10.3719026 10.771,10.7318941 10.7245,10.7510368 C10.678,10.7707114 10.6255,10.7419973 10.6085,10.6909497 C10.591,10.6404338 10.2209999,9.44613416 10.1815,9.32702328 L7.86,9.31638839 L7.396,10.6909497 C7.37949999,10.7398703 7.3295,10.7728384 7.28,10.7510368 L6.33550001,10.347974 C6.2874878,10.3261853 6.26396216,10.2681966 6.282,10.2161013 C6.342,10.0331809 7.936,5.23258534 8.01799999,4.98319685 C8.17549999,4.49930873 8.379,4 9.00200003,4 C9.62549995,4 9.82150005,4.49133255 9.98500001,4.98319685 Z M6.093,12.6243752 C6.0415,12.6243752 6,12.6717004 6,12.7296607 L6,13.8952462 C6,13.9537381 6.0415,14 6.093,14 L11.908,14 C11.9589999,14 12,13.9537381 12,13.8952462 L12,12.7296607 C12,12.6711687 11.9589999,12.6249069 11.908,12.6249069 L6.093,12.6249069 L6.093,12.6243752 Z M8.17999999,8.22631073 L9.8155,8.22631073 L9.08500005,5.60480696 L8.8945,5.60480696 L8.17999999,8.22631073 Z" id="Shape-Copy" fill="#0B1F35"></path>
        </g>
    </g>
</svg>

<svg width="24" height="24" viewBox="0 0 24 24" xmlns="http://www.w3.org/2000/svg"><g fill="none" fill-rule="evenodd"><path d="M0 0h24v24H0z"/><g transform="translate(3 3)" fill-rule="nonzero"><rect fill="gold" width="18" height="18" rx="9"/><path d="M9.985 4.983l1.737 5.233c.014.04.005.108-.053.132l-.944.403c-.047.02-.1-.009-.117-.06-.017-.05-.387-1.245-.427-1.364l-2.321-.01-.464 1.374c-.017.049-.066.082-.116.06l-.944-.403a.107.107 0 0 1-.054-.132l1.736-5.233C8.175 4.5 8.379 4 9.002 4s.82.491.983.983zm-3.892 7.641c-.051 0-.093.048-.093.106v1.165c0 .059.042.105.093.105h5.815c.051 0 .092-.046.092-.105V12.73c0-.059-.041-.105-.092-.105H6.093zM8.18 8.226h1.636l-.731-2.621h-.19L8.18 8.226z" fill="#0B1F35"/></g></g></svg>
